X:867
T:Hardiman the fiddler
T:Hardy Man the fiddler
R:Slip Jig
O:Ireland
B:O'Neill's 1117
S:O'Neill's 1117
Z:Transcription, slight rearrangement, chords:Mike Long
M:9/8
L:1/8
K:G
"D"A2G FDE F2G|"D"A2A AGA "C"cAG|\
"D"A2G FDE F2G|"Am"Add ded "C"cAG:|
"D"Add d2e f3|"D"Add ded "C"cAG|\
"D"Add d2e f2g|"Am"agf ged "C"cAG|
"D"Add d2e f2f|"D"Add ded "C"cAG|\
"D"dcA d2e f2g|"Am"agf ged "C"cAG|]
